X:60
T:Anglais efter Jöns Persson
T:(SvL Skåne nr. 60)
R:Anglais
Z:Patrik Månsson, 2009-01-12
O:Roalöv, Skåne
S:efter Jöns Persson
B:Svenska Låtar Skåne
M:2/4
L:1/16
K:D
|: A2(FG) Acdc | B2(GB) dfgf | e2(ed) cecA | (^GA)Bc d4 :|
|: f2fe (ef)af | gfed edcd | B2(BA) B2a2 | (ge)ce d4 :|

